X:1
T:The Art of Fugue Contrapunctus IV (A = 415 Hz)
T:BWV 1080
T:J. S. Bach
%%score { 1 | 2 } { 3 | 4 }
L:1/8
M:2/2
K:E
V:1 alto1 nm="Harp"
V:2 alto 
V:3 tenor nm="Harp"
V:4 bass 
V:1
 G4 C4 | E4 G4 | A4 G2 F2 | E4- EDEF | G4- GAG=G | G4- GAG=G | G2 c2 F2 A2- | A2 D2 G2 F2- | %8
 F2 E2 A4- | A2 G2 c4- | c2 B2 A4- | A2 GF E4- | Eedc defd | g4 z2 G2 | E8 | D2 d2 B4- | %16
 BB^AG A^B c2 | d4- d^Bcd | G6 c2 | A6 B2 | G6 A2 | F6 G2 | E4 z4 | z8 | z8 | z8 | B4 E4 | G4 B4 | %28
 c4 B2 A2 | G4- GFG^A | B4 z4 | z2 d2 B4- | B2 ^AB c4- | cFG^A B4- | B2 c2 A4 | z2 c2 A2 a2- | %36
 a2 gf gf^eg | c4 z2 c2 | A3 A G4 | z2 g2 e4 | z2 f2 ^Bc d2- | dG^A^B c4- | c^ABc d4- | dfed c4- | %44
 cedc B4- | BdcB ^A4- | AG=G^A ^GA B2- | B^AGB AB c2- | cB^Ac Bc d2- | dc^Bd cd e2- | e2 d4 c2 | %51
 B2 g4 =g2 | g2 d2 B4 | z2 B2 G4 | z2 g2 e4 | z2 e2 c4 | z bag fedc | B2 c2 A4- | A2 f2 d4- | %59
 dgfe dcBA | Ged=d ^d4- | ded=d ^d4- | df^ed ef g2 | c6 c2 | A4- A=dc^B | c4- c=dc^B | c4 z4 | z8 | %68
 z8 | z8 | z8 | z8 | z8 | z8 | z8 | z8 | d4 G4 | B4 d4 | f4 ^e2 d2 | =d4- d^A^Bd | d4- defd | %81
 ed c2- cdec | dc B2- Bc=dB | cB ^A2- ABcA | B8- | B4 ^A4 | B4 z2 B2 | G4 z2 g2 | e4 z2 c2 | %89
 ^A4 z2 c2 | f8- | f4- ffed | e4 z fga | be=dc d4- | d2 c2 z ^d^ef | gcBA B4- | BAB=d c4- | %97
 c2 Bc =d4- | d2 c=d e4- | e2 =de f4- | f2 ef g4- | gc f4 ^e2 | f2 z4 f2 | d4 z edc | B4 z2 B2 | %105
 G4 z fed | c=dc^B c4- | c=dc^B c4- | c=dc^B c3 ^d | e2 g2 e2 z2 | c2 G4 B2- | B2 d4 e2- | %112
 e2 d4 c2- | c2 ^B2- BG^AB | c4 z2 c2 | A4 z4 | z ABc BAGF | G8- | G2 F2 B4- | B2 G2 c4- | %120
 c2 ^A2 d4- | defc ^Bagf | e8- | e2 dc d4- | d2 c^B c4- | c2 BA B4- | B4- BABG | Ac=dB cfcB- | %128
 BAB=d cBAG | F^E F2 z2 G2 | =G4 ^G2 z2 | z4 z gfd | egc^B c4- | cedc ^Bc^AB | c3 ^B c3 B | %135
 c3 =d G2 z2 | z cdf ^B4 | !fermata!c8 |] %138
V:2
 z8 | z8 | z8 | z8 | C4 G,4 | B,4 D4 | E4 D2 C2 | ^B,4- B,G,^A,B, | C4- CB,CD | E4- EDEF | %10
 G4- GFED | C4- CDC^B, | C2 F2 ^B,2 D2- | D2 G,2 C4- | C=DC^B, C2 c2- | c2 B^A GFED | C2 F2- FGFE | %17
 FGAF D4- | D2 CD E4- | E2 F2 D4- | D2 E2 C4- | C2 D2 ^B,4 | C4 z BAG | F4- FcBA | G4- G=dcB | %25
 A4- AAGF | E2 =D2 C4 | B,^E=ED E4- | EBAG FGFE | DC D2 C2 z2 | F4 B,4 | D4 F4 | G4 F2 E2 | %33
 D4- DCD^E | F4- F=GF^E | F4- F=GF^E | F2 B2 ^E2 G2- | G=GF^E F4- | F^E F3 F=ED | C2 z2 z2 G2 | %40
 E2 A2 D2- DA | GFEF G4- | G=G ^G2 z DEF | G4 z CDE | F4 z B,CD | E4- EDCE | D4- D3 G | %47
 E2 G2- G3 ^A | =G2 ^A2- A3 B | G6 =G^G | ^A2 c2 =G2 A2- | AG B2[K:alto1] z edc- | ccB^A G4 | %53
 z AGF E4 | z fed c4 | z =dcB A4 |[K:alto] z4 z2 A2 | F4- FGFE | DBAG FAGc | B2 D2 B,4- | %60
 B,2 =G2 F=cB^A | B4- B=cB^A | B4- B3 B- | BAGF G4- | G=GF^E F4- | F=GF^E F2 G2- | G^G=G^G ^A4- | %67
 A2 =A2 F2 D2 | G6 C2 | A6 B,2 | G6 A2 | F4- FAGF | G4 C4 | E4 G4 | B4 ^A2 G2 | =G4- GD^EG | %76
 GAG=G ^GcB^A | GAG=G ^GcB^A | A[K:alto1]^edc ^BAAB |[K:alto] ^EFEF G2 E2 | D2 ^A2 G4- | %81
 G=G^E^G =G2 ^G2 | ^A2 G=G ^G4- | G2 F^E F2 z2 | z2 ^E2- EFGE | F2 E=G FEDC | D2 F2 D2 F2- | %87
 FFED E2 z2 | z2 G2 E2 G2- | GGF^E F4 | z2 d2 ^B2 c2- | c^A^Bc d4- | ddc^B c4 | z z4 AGF | %94
 EBAG A2 z2 | z4 z F^ED | C2 z2 z FGA | =D2 z2 z GAB | ^E2 z2 z Ac=G | F2 z2 z GAF | G2 z2 z4 | %101
 z4 z =dcB | A2 z2 z BAG | F4 z2 F2 | D4 z AGF | E4 z2 G2 | E4- EFED | C2 E2- EFED | C2 D2 EG^A^B | %109
[K:alto1] c2 e2 c2 G2 |[K:alto] E4 B,4 | D4 =G4 | G4 F2 E2 | D4- D^B,CD | G,2 G2 ^E4 | %115
 z ^EFG F=EDC | B,2 z2 z4 | z DEF E=DC^B, | C2 z2 z2 D2 | B,2 z4 ^E2 | C2 z4 =G2 | D2 z2 z4 | %122
 z c^Bd c=BAG | AG F2- FGAF | GF E2- EFGE | FE =D2- D^EF^D | ^EF G2 C2 z2 | z8 | z2 G,2 A,2 B,2 | %129
 C4 z2 G,2 | ^A,4 z2 E2- | E2 D2 z4 | G4 C4 | E4 G4 | A4 G2 F2 | ^E4- ECDE | F4- F^EFD | %137
 !fermata!^E8 |] %138
V:3
 z8 | z8 | z8 | z8 | z8 | z8 | z8 | z8 | z8 | z8 | G,4 C,4 | E,4 G,4 | A,4 G,2 F,2 | %13
 E,4- E,D,E,F, | G,4- G,A,G,=G, | G,4- G,A,G,=G, | G,2 C2 F,2 A,2- | A,2 D,2 G,2 F,2 | %18
 E,D,E,F, G,2 z2 | z C,D,E, F,2 z2 | z ^B,,C,D, E,2 z2 | z ^A,,^B,,C, D,2 z2 | z G,A,B, C4- | %23
 C^A,B,C D4- | D^B,CD E4- | EEDC B,4- | B,6 A,2 | G,2 B,2 G,4- | G,G,F,E, D,C, D,2- | %29
 D,2 G,F, E,D, E,2- | E,2 D,C, D,E, F,2- | F,G, A,4 G,F, | E,4 z4 | z8 | C4 F,4 | A,4 C4 | %36
 =D4 C2 B,2 | A,4- A,G,A,B, | C=DC^B, CD,E,F, | G,C, C3 =DC^B, | CEDC G2 ^B,2- | B,2 CD E4- | %42
 E2 D2 B,4- | B,2 C2 ^A,4- | A,2 B,2 G,4- | G,2 ^A,2 =G,4- | G,2 D,4 ^G,2- | G,2 E,4 C,2 | %48
 ^A,2 =G,4 G,2 | G,2 D2 G,2 C2- | CB,^A,C B,A,G,=G, | %51
 G,2- G,^A, B,/4A,/4B,/4A,/4B,/4A,/4B,/4A,/4 B,/4A,/4B,/4A,/4B,/4A,/4B,/4A,/4 | G,4 z CB,A, | %53
 G,4 z A,G,F, | E,4 z FED | C4 z =DCB, | A,2 F2 D4 | z B,A,G, F,4- | F,4 z CB,A, | G,4 z A,G,F, | %60
 G,2 ^A,2 B,2 D2 | B,4 z2 D2 | B,4 z2 =D2 | G,4 z4 | C4 F,4 | A,4 C4 | E4 D2 C2 | ^B,4- B,G,^A,B, | %68
 C2 G,2 E4- | E2 F,2 D4- | D2 E2 C4- | CEDC ^B,4- | B,=DC^B, CFE^D | C=DC^B, CFE^D | %74
 =D^D=D^D ^EDE=D | ^A,B,A,B, C2 A,2 | G,2 D2 B,2 z2 | z2 D2 B,2 D2- | D2 A,2 z2 ^E,F, | %79
 G,4 z2 ^A,2- | A,B,C^A, B,2 ^B,2 | C6 B,2 | ^A,2 D2 B,A, B,2 | G,2 C2 =D2 E2- | E^A,B,C =D4- | %85
 D C3- C2 F,2- | F,F,G,^A, B,2 z2 | z2 B,2 G,4 | z G,^A,^B, C2 z2 | z2 C2 ^A,4 | z ^A,^B,C D2 A2 | %91
 DC D2 ^B,4 | z2 G,2 E,4 | z2 B,2 G,2 B,2 | z2 E,2 C,4 | z2 G,2 ^E,2 G,2- | G,2 F,^E, F,4- | %97
 F,^E,F,A, G,4- | G,F,G,B, A,4- | A,G,A,C B,4- | B,A,B,=D CB,A,G, | %101
 A,3 B, A,/4G,/4A,/4G,/4A,/4G,/4A,/4G,/4 A,/4G,/4A,/4G,/4A,/4G,/4 z/ | F,=DCB, A,4 | z B,A,G, F,4 | %104
 z CB,A, G,4 | z A,G,F, E,4 | G,4 C,4 | E,4 G,4 | A,4 G,2 F,2 | E,4- E,D,E,F, | G,A,G,=G, ^G,4- | %111
 G,G,F,E, D,2 C,2- | C,D,C,^B,, C,D,E,F, | G, z z2 z4 | z B,C=D CB,A,G, | F,2 C2 A,4- | %116
 A,F,G,A, G,F,E,D, | E,8- | E,E,D,C, D,2 F,2- | F,2 ^E,D, E,2 G,2- | G,2 =G,^E, G,2 ^A,2- | %121
 A,2 =A,2 G,4- | G,2 F,2 G,2 C2- | C2 A,2 F,2 D,2 | z2 G,2 E,2 C,2 | z2 F,2 =D,2 B,,2 | %126
 C,4- C,C,D,^E, | F,2 z2 z4 | C4 F,4 | A,4 C4 | E4 D2 C2 | ^B,4- B,G,^A,B, | C2 G,2- G,A,G,=G, | %133
 G,^A,,^B,,C, D,E,F,D, | ^E,G, F,2- F,E, A,2- | A,G, B,2- B,2 ^A,G, | ^A,2 =A,2- A,2 G,F, | %137
 !fermata!G,8 |] %138
V:4
 z8 | z8 | z8 | z8 | z8 | z8 | z8 | z8 | z8 | z8 | z8 | z8 | z8 | z8 | C,4 G,,4 | B,,4 D,4 | %16
 E,4 D,2 C,2 | ^B,,4- B,,G,,^A,,B,, | C,4- C,B,,A,,G,, | F,,4- F,,A,,G,,F,, | E,,4- E,,G,,F,,E,, | %21
 D,,4- D,,F,,E,,D,, | C,,2 C,2 A,,2 F,,2 | D,,2 D,2 B,,2 G,,2 | E,,2 E,2 C,2 A,,2 | %25
 F,,2 F,2 D,2 B,,2 | G,,E,,F,,G,, A,,B,,C,D, | E,4- E,=D,C,B,, | A,,4 B,,4 | ^B,,4 C,4 | %30
 B,,4 z2 D,2 | B,,2 F,E, D,C, =D,2- | D,=D,C,B,, ^A,,F,,G,,A,, | B,,2 A,,2 G,,4 | %34
 F,,G,,A,,C, F,2 z2 | z8 | z8 | z8 | F,4 C,4 | E,4 G,4 | A,4 G,2 F,2 | E,4- E,D,E,F, | G,4 z2 G,2 | %43
 E,4 z2 F,2 | D,4 z2 E,2 | C,4- C,B,,^A,,C, | B,,3 ^A,, B,,2 G,,2 | C,3 B,, C,2 ^A,,2 | %48
 D,3 C, D,2 B,,2 | E,3 D, E,2 C,2 | =G,4 z2 D,2 | G,2 E,2 C,2 D,2 | G,,4 z2 G,2 | E,4 z2 E,2 | %54
 C,4 z2 C2 | A,4 z2 A,2 | F,4 z G,F,E, | D,4 z E,D,C, | B,,4 z4 | z8 | E,4 B,,4 | D,4 F,4 | %62
 A,4 G,2 F,2 | ^E,4- E,C,D,E, | F,2 C,2 A,,4 | z2 C,2 A,,4 | z B,,^A,,G,, =G,,D,,^E,,G,, | %67
 G,,G,F,E, D,E,F,D, | E,F,E,D, C,B,,A,,G,, | F,,G,,A,,F,, B,,C,D,B,, | E,F,G,E, A,G,F,E, | %71
 D,C,^B,,^A,, G,,F,,E,,D,, | C,,2 G,2 E,2 C,2 | z2 G,,2 E,,2 C,,2 | z F,^E,D, =D,^B,,D,^A,, | %75
 D,2 D,,2 ^A,,2 C,2 | B,,2 z2 z2 G,2 | ^E,4 z2 G,2 | ^E,2 ^B,,2 A,,2 ^E,,2 | z2 ^A,,2 ^E,2 G,2- | %80
 G,2 =G,2 ^G,4- | G,^A,B,G, A,2 G,2 | =G,2 D,2 E,2 ^E,2- | E,2 F,4 =G,2- | G,2 ^G,2- G,F,^E,G, | %85
 F,4 F,,4 | B,,4 z B,,C,D, | E,4 z F,E,D, | C,4 z C,D,E, | F,4 z G,F,E, | D,4 z D,E,F, | %91
 G,4 z2 G,2 | C,4 z C,B,,A,, | G,,2 z2 z2 E,2 | A,,4 z A,,G,,F,, | ^E,,2 z2 z2 C,2 | %96
 F,,2 G,,2 A,,2 F,,2 | B,,2 =D,2 B,,2 G,,2 | C,2 ^E,2 C,2 A,,2 | =D,2 F,2 ^D,2 B,,2 | %100
 E,2 G,2 ^E,2 C,2 | F,2 =D,2 B,,2 C,2 | F,2 A,2 F,4 | z2 F,2 D,4 | z2 G,2 E,4 | z2 E,2 C,4- | %106
 C,2 E,4 A,,2- | A,,2 C,4 E,2- | E,2 F,2- F, E,2 D, | C,4- C,^B,,C,D, | E,4- E,E,D,C, | %111
 B,,4- B,, ^A,,2 =A,, | G,,8- | G,,F,G,A, G,F,E,D, | ^E,4 z2 C,2 | F,,2 z4 F,2 | D,4 z2 B,,2 | %117
 E,2 B,,2 G,,2 E,,2 | A,,4- A,,G,,F,,A,, | G,,^A,, B,,2- B,,A,,G,,B,, | ^A,,^B,, C,2- C,B,,A,,C, | %121
 ^B,,C, D,2- D,C,B,,D, | C,2 D,2 E,2 C,2 | F,4 z2 B,,2 | E,4 z2 E,,2 | A,,4- A,,G,,A,,F,, | %126
 A,,G,,F,,^E,, F,,4- | F,,^E,,F,,G,, A,,F,,A,,C, | F,8- | F,C,B,,G,, A,,C,F,,E,, | %130
 D,,D,C,^A,, B,,D,G,,=G,, | G,,G,F,D, E,4- | E,4 A,,4 | G,,8 | C,8- | C,8- | C,8- | !fermata!C,8 |] %138

